svg/fluentui-system-icons/ic_fluent_copy_add_24_regular.svg

<svg width="24" height="24" viewBox="0 0 24 24" fill="none" xmlns="http://www.w3.org/2000/svg">
<path d="M5.5028 4.62704L5.5 6.75V17.2542C5.5 19.0491 6.95507 20.5042 8.75 20.5042L10.7344 20.5043C11.0222 21.0554 11.3866 21.5601 11.8136 22.0042H8.75C6.12665 22.0042 4 19.8776 4 17.2542V6.75C4 5.76929 4.62745 4.93512 5.5028 4.62704ZM20 4.25V12.0218C19.5368 11.7253 19.0335 11.4858 18.5 11.3135V4.25C18.5 3.83579 18.1642 3.5 17.75 3.5H8.75C8.33579 3.5 8 3.83579 8 4.25V17.25C8 17.6642 8.33579 18 8.75 18H10.0189C10.0585 18.5195 10.159 19.0218 10.3135 19.5H8.75C7.50736 19.5 6.5 18.4926 6.5 17.25V4.25C6.5 3.00736 7.50736 2 8.75 2H17.75C18.9926 2 20 3.00736 20 4.25ZM22 17.5C22 14.4624 19.5376 12 16.5 12C13.4624 12 11 14.4624 11 17.5C11 20.5376 13.4624 23 16.5 23C19.5376 23 22 20.5376 22 17.5ZM17.0006 18L17.0011 20.5035C17.0011 20.7797 16.7773 21.0035 16.5011 21.0035C16.225 21.0035 16.0011 20.7797 16.0011 20.5035L16.0006 18H13.4956C13.2197 18 12.9961 17.7762 12.9961 17.5C12.9961 17.2239 13.2197 17 13.4956 17H16.0005L16 14.4993C16 14.2231 16.2239 13.9993 16.5 13.9993C16.7761 13.9993 17 14.2231 17 14.4993L17.0005 17H19.4966C19.7725 17 19.9961 17.2239 19.9961 17.5C19.9961 17.7762 19.7725 18 19.4966 18H17.0006Z" fill="#212121"/>
</svg>

<svg xmlns="http://www.w3.org/2000/svg" width="24" height="24"><path d="M5.503 4.627 5.5 6.75v10.504a3.25 3.25 0 0 0 3.25 3.25h1.984a6.518 6.518 0 0 0 1.08 1.5H8.75A4.75 4.75 0 0 1 4 17.254V6.75c0-.98.627-1.815 1.503-2.123ZM20 4.25v7.772a6.471 6.471 0 0 0-1.5-.709V4.25a.75.75 0 0 0-.75-.75h-9a.75.75 0 0 0-.75.75v13c0 .414.336.75.75.75h1.269c.04.52.14 1.022.294 1.5H8.75a2.25 2.25 0 0 1-2.25-2.25v-13A2.25 2.25 0 0 1 8.75 2h9A2.25 2.25 0 0 1 20 4.25Zm2 13.25a5.5 5.5 0 1 0-11 0 5.5 5.5 0 0 0 11 0Zm-5 .5.001 2.503a.5.5 0 1 1-1 0V18h-2.505a.5.5 0 0 1 0-1H16v-2.5a.5.5 0 1 1 1 0V17h2.497a.5.5 0 0 1 0 1H17Z"/></svg>
